assets/02_eyes/Eye 25.svg

<svg width="400" height="180" viewBox="0 0 400 180" fill="none" xmlns="http://www.w3.org/2000/svg">
<g clip-path="url(#clip0_70_1160)">
<path d="M303.368 36.3763C329.666 78.5472 316.795 134.069 274.624 160.367C232.453 186.666 176.931 173.795 150.633 131.624L303.368 36.3763Z" fill="white"/>
<path d="M274.624 160.367C295.712 147.217 302.147 119.46 288.996 98.3719C275.845 77.2836 248.088 70.8491 227 84C205.912 97.1509 199.477 124.907 212.628 145.996C225.779 167.084 253.536 173.518 274.624 160.367Z" fill="#010101"/>
<path d="M230.747 129.209L228.575 127.645L229.006 127.376L229.003 127.453C229.054 128.094 228.989 128.709 228.806 129.297C228.624 129.884 228.307 130.456 227.873 131.001C227.44 131.546 226.867 132.027 226.185 132.453C225.089 133.136 224.026 133.351 222.947 133.1C221.886 132.839 220.89 131.963 219.961 130.472L213.666 120.379C212.736 118.888 212.406 117.598 212.674 116.507C212.942 115.417 213.638 114.534 214.752 113.84C215.65 113.28 216.581 112.973 217.517 112.913C218.453 112.854 219.184 112.947 219.671 113.167L219.78 113.223L219.349 113.492L215.261 106.936L219.572 104.248L233.908 127.238L230.747 129.209ZM218.499 116.168C217.798 116.605 217.741 117.313 218.357 118.301L223.801 127.03C224.159 127.605 224.542 127.939 224.951 128.034C225.359 128.129 225.815 128.019 226.299 127.717C226.766 127.426 227.018 127.069 227.072 126.636C227.127 126.203 227.01 125.777 226.73 125.328L220.884 115.952C220.018 115.644 219.235 115.709 218.499 116.168ZM221.617 104.968L222.872 106.98L215.31 111.695L214.056 109.684L221.617 104.968Z" fill="white"/>
<path d="M247.701 118.636L243.391 121.324L242.17 119.366L242.601 119.097C242.632 119.627 242.58 120.183 242.398 120.771C242.233 121.347 241.916 121.919 241.494 122.482C241.071 123.045 240.51 123.544 239.81 123.981C238.732 124.653 237.704 124.845 236.69 124.579C235.676 124.314 234.706 123.397 233.765 121.889L225.018 107.862L229.328 105.173L237.695 118.59C238.3 119.56 239.008 119.816 239.799 119.323C240.05 119.167 240.252 118.891 240.412 118.467C240.572 118.043 240.68 117.576 240.736 117.067L232.202 103.381L236.512 100.693L247.713 118.654L247.701 118.636ZM232.251 96.5406L233.506 98.5521L225.654 106.242L224.4 104.231L232.251 96.5406Z" fill="white"/>
<path d="M238.226 99.6001L242.537 96.9121L243.847 99.0134L243.416 99.2822L243.457 98.9076C243.57 98.0888 243.86 97.2342 244.352 96.3036C244.845 95.373 245.536 94.6422 246.416 94.0934C247.476 93.4326 248.45 93.2743 249.374 93.596C250.298 93.9178 251.222 94.8386 252.185 96.3832L260.932 110.41L256.622 113.098L248.255 99.6819C247.65 98.7121 246.977 98.4332 246.277 98.87C245.577 99.3068 245.138 100.004 245.034 100.917L253.748 114.89L249.438 117.578L238.237 99.6181L238.226 99.6001Z" fill="white"/>
<path d="M253.557 91.7851C253.806 90.1834 254.947 88.7733 257.012 87.4852L263.28 83.5763L265.072 86.45L261.103 88.9253L260.834 88.4942C261.86 88.1789 262.883 88.1395 263.875 88.3694C264.877 88.6172 265.832 89.4685 266.739 90.9233L266.975 91.3004C267.669 92.414 268.094 93.4958 268.262 94.564C268.429 95.6321 268.268 96.6551 267.756 97.6732C267.261 98.6801 266.358 99.5923 265.047 100.41L263.988 101.071C263.539 101.351 263.26 101.624 263.152 101.891C263.044 102.158 263.064 102.47 263.266 102.793C263.669 103.44 264.302 103.494 265.164 102.957L266.996 101.814C268.971 100.582 270.621 100.027 271.962 100.139C273.304 100.25 274.47 101.119 275.467 102.718C276.598 104.532 276.937 106.116 276.467 107.482C275.997 108.848 274.903 110.054 273.197 111.118L271.095 112.428C269.461 113.448 267.977 113.949 266.62 113.972C265.263 113.995 264.218 113.4 263.467 112.196C263.03 111.496 262.775 110.807 262.695 110.158C262.615 109.51 262.728 108.891 263.034 108.301C263.328 107.693 263.809 107.144 264.442 106.6L264.711 107.031C263.681 107.499 262.767 107.594 262.018 107.313C261.251 107.043 260.628 106.484 260.102 105.639C259.62 104.867 259.403 104.079 259.458 103.247C259.512 102.415 259.989 101.619 260.88 100.888L261.149 101.319C260.119 101.787 259.118 101.663 258.199 100.989C257.269 100.297 256.462 99.403 255.767 98.2894L254.815 96.7628C253.74 95.0386 253.327 93.3756 253.568 91.8031L253.557 91.7851ZM267.163 109.443C267.513 109.524 267.903 109.43 268.334 109.161L271.783 107.011C272.196 106.753 272.452 106.444 272.551 106.083C272.632 105.733 272.561 105.378 272.337 105.019C272.102 104.642 271.815 104.422 271.487 104.376C271.16 104.331 270.78 104.443 270.349 104.712L266.901 106.862C266.452 107.142 266.185 107.434 266.099 107.737C265.995 108.051 266.067 108.405 266.302 108.782C266.537 109.159 266.813 109.362 267.163 109.443ZM261.546 97.1554C261.914 97.2253 262.286 97.1427 262.646 96.9187C263.005 96.6947 263.279 96.3741 263.396 96.0018C263.513 95.6294 263.437 95.2278 263.168 94.7967L261.197 91.6357C260.939 91.2226 260.612 90.9777 260.215 90.901C259.829 90.8423 259.439 90.9362 259.061 91.1714C258.684 91.4066 258.464 91.6935 258.365 92.0547C258.266 92.4158 258.342 92.8175 258.611 93.2485L260.582 96.4096C260.84 96.8226 261.167 97.0675 261.546 97.1554Z" fill="white"/>
<path d="M245.028 160.19C245.028 160.19 245.017 160.172 245.006 160.154L230.703 137.219L235.014 134.531L249.35 157.52L245.093 160.174L245.057 160.197L245.028 160.19ZM247.121 153.946L249.339 157.502L248.764 157.86L246.546 154.304L247.121 153.946Z" fill="white"/>
<path d="M241.843 139.002C242.091 137.4 243.251 135.979 245.298 134.702C247.346 133.425 249.143 133.028 250.68 133.492C252.227 133.973 253.509 135.069 254.585 136.794L259.042 143.942C260.118 145.666 260.531 147.329 260.289 148.902C260.041 150.503 258.9 151.913 256.834 153.201C254.769 154.49 252.989 154.876 251.453 154.412C249.905 153.93 248.623 152.834 247.548 151.11L243.09 143.962C242.015 142.238 241.601 140.575 241.843 139.002ZM253.349 150.012C253.735 150.071 254.143 149.966 254.592 149.686C255.041 149.406 255.315 149.085 255.45 148.702C255.585 148.318 255.509 147.916 255.24 147.485L249.752 138.685C249.495 138.272 249.149 138.038 248.752 137.961C248.348 137.914 247.922 138.03 247.491 138.299C247.06 138.568 246.768 138.899 246.651 139.272C246.534 139.644 246.61 140.046 246.879 140.477L252.367 149.277C252.624 149.69 252.952 149.935 253.349 150.012Z" fill="white"/>
<path d="M254.775 130.938C255.023 129.336 256.182 127.915 258.23 126.638C260.277 125.361 262.075 124.964 263.611 125.427C265.159 125.909 266.441 127.005 267.516 128.729L271.974 135.878C273.049 137.602 273.463 139.265 273.221 140.837C272.973 142.439 271.831 143.849 269.766 145.137C267.701 146.425 265.921 146.812 264.385 146.348C262.837 145.866 261.555 144.77 260.479 143.046L256.022 135.898C254.946 134.173 254.533 132.511 254.775 130.938ZM266.28 141.948C266.666 142.007 267.075 141.901 267.524 141.621C267.973 141.341 268.247 141.021 268.382 140.637C268.517 140.254 268.441 139.852 268.172 139.421L262.684 130.621C262.426 130.207 262.081 129.974 261.684 129.897C261.28 129.85 260.854 129.966 260.423 130.235C259.992 130.503 259.7 130.835 259.583 131.208C259.466 131.58 259.541 131.982 259.81 132.413L265.298 141.213C265.556 141.626 265.883 141.871 266.28 141.948Z" fill="white"/>
<path d="M262.601 117.327L266.911 114.639L274.102 126.169L273.671 126.438L273.244 117.674L277.267 115.165L278.339 122.404C278.444 123.212 278.477 123.865 278.398 124.338C278.33 124.83 278.087 125.28 277.674 125.738C277.261 126.195 276.587 126.715 275.653 127.297L275.384 126.866C276.318 126.284 277.081 125.908 277.656 125.749C278.231 125.59 278.753 125.588 279.195 125.737C279.637 125.885 280.191 126.214 280.868 126.739L288.97 132.812L284.373 135.679L275.492 129.319L275.923 129.05L281.265 137.617L276.955 140.305L262.619 117.316L262.601 117.327Z" fill="white"/>
<g clip-path="url(#clip1_70_1160)">
<path d="M95.4352 145.28C68.6844 103.079 81.2087 47.186 123.41 20.4352C165.611 -6.31562 221.505 6.20869 248.255 48.4101L95.4352 145.28Z" fill="white"/>
<path d="M171.845 96.8453C192.945 83.4703 199.208 55.5227 185.833 34.4226C172.458 13.3226 144.51 7.06019 123.41 20.4352C102.31 33.8102 96.0477 61.7578 109.423 82.8578C122.798 103.958 150.745 110.22 171.845 96.8453Z" fill="#FF71EE"/>
<path d="M124.003 48.3939C129.004 44.7753 135.196 44.9588 140.587 47.4925C140.598 42.6797 142.234 37.7585 146.013 34.5668C154.134 27.7006 163.951 31.0889 168.89 39.7846C175.297 51.1102 169.561 62.8386 166.289 74.1745C165.382 77.339 164.573 80.5408 163.706 83.7295L163.312 83.8546C156.238 82.2389 148.978 81.5874 141.837 80.3377C131.75 78.5651 124.747 76.356 119.552 66.6276C116.168 60.3072 118.278 52.5208 123.992 48.3761L124.003 48.3939Z" fill="white"/>
</g>
</g>
<defs>
<clipPath id="clip0_70_1160">
<rect width="400" height="180" fill="white"/>
</clipPath>
<clipPath id="clip1_70_1160">
<rect width="180.936" height="90.4681" fill="white" transform="translate(47 68.8704) rotate(-32.37)"/>
</clipPath>
</defs>
</svg>

<svg xmlns="http://www.w3.org/2000/svg" width="400" height="180" fill="none" viewBox="0 0 400 180"><g clip-path="url(#a)"><path fill="#fff" d="M303.368 36.376c26.298 42.171 13.427 97.693-28.744 123.991s-97.693 13.428-123.991-28.743z"/><path fill="#010101" d="M274.624 160.367c21.088-13.15 27.523-40.907 14.372-61.995S248.088 70.849 227 84s-27.523 40.907-14.372 61.996c13.151 21.088 40.908 27.522 61.996 14.371"/><path fill="#fff" d="m230.747 129.209-2.172-1.564.431-.269-.003.077a4.9 4.9 0 0 1-.197 1.844c-.182.587-.499 1.159-.933 1.704-.433.545-1.006 1.026-1.688 1.452-1.096.683-2.159.898-3.238.647q-1.592-.391-2.986-2.628l-6.295-10.093q-1.394-2.236-.992-3.872c.268-1.09.964-1.973 2.078-2.667.898-.56 1.829-.867 2.765-.927.936-.059 1.667.034 2.154.254l.109.056-.431.269-4.088-6.556 4.311-2.688 14.336 22.99zm-12.248-13.041c-.701.437-.758 1.145-.142 2.133l5.444 8.729q.537.862 1.15 1.004c.408.095.864-.015 1.348-.317.467-.291.719-.648.773-1.081s-.062-.859-.342-1.308l-5.846-9.376c-.866-.308-1.649-.243-2.385.216m3.118-11.2 1.255 2.012-7.562 4.715-1.254-2.011zm26.084 13.668-4.31 2.688-1.221-1.958.431-.269a4.7 4.7 0 0 1-.203 1.674c-.165.576-.482 1.148-.904 1.711q-.634.844-1.684 1.499c-1.078.672-2.106.864-3.12.598-1.014-.265-1.984-1.182-2.925-2.69l-8.747-14.027 4.31-2.689 8.367 13.417c.605.97 1.313 1.226 2.104.733.251-.156.453-.432.613-.856a5.7 5.7 0 0 0 .324-1.4l-8.534-13.686 4.31-2.688 11.201 17.961zm-15.45-22.095 1.255 2.011-7.852 7.69-1.254-2.011zm5.975 3.059 4.311-2.688 1.31 2.101-.431.27.041-.375c.113-.82.403-1.674.895-2.604a5.7 5.7 0 0 1 2.064-2.21c1.06-.661 2.034-.82 2.958-.498s1.848 1.243 2.811 2.787l8.747 14.027-4.31 2.688-8.367-13.416c-.605-.97-1.278-1.249-1.978-.812s-1.139 1.134-1.243 2.047l8.714 13.973-4.31 2.688-11.201-17.96zm15.331-7.815c.249-1.602 1.39-3.012 3.455-4.3l6.268-3.909 1.792 2.874-3.969 2.475-.269-.43a5.8 5.8 0 0 1 3.041-.126q1.503.373 2.864 2.554l.236.377c.694 1.114 1.119 2.196 1.287 3.264s.006 2.091-.506 3.11q-.743 1.509-2.709 2.736l-1.059.661q-.674.42-.836.82c-.108.267-.088.579.114.902q.605.97 1.898.164l1.832-1.143c1.975-1.232 3.625-1.787 4.966-1.675s2.508.98 3.505 2.579c1.131 1.814 1.47 3.398 1 4.764s-1.564 2.572-3.27 3.636l-2.102 1.31c-1.634 1.02-3.118 1.521-4.475 1.544s-2.402-.572-3.153-1.776c-.437-.7-.692-1.389-.772-2.038a3.1 3.1 0 0 1 .339-1.857c.294-.608.775-1.157 1.408-1.701l.269.431c-1.03.468-1.944.563-2.693.282-.767-.27-1.39-.829-1.916-1.674-.482-.772-.699-1.56-.644-2.392s.531-1.628 1.422-2.359l.269.431c-1.03.468-2.031.344-2.95-.33-.93-.692-1.737-1.586-2.432-2.7l-.952-1.526c-1.075-1.724-1.488-3.387-1.247-4.96zm13.606 17.658q.525.121 1.171-.282l3.449-2.15q.62-.387.768-.928.122-.525-.214-1.064c-.235-.377-.522-.597-.85-.643q-.491-.067-1.138.336l-3.448 2.15q-.673.42-.802.875c-.104.314-.032.668.203 1.045s.511.58.861.661m-5.617-12.288c.368.07.74-.012 1.1-.236.359-.224.633-.545.75-.917q.175-.559-.228-1.205l-1.971-3.161q-.387-.62-.982-.735c-.386-.059-.776.035-1.154.27s-.597.522-.696.884c-.099.36-.023.762.246 1.194l1.971 3.16c.258.414.585.658.964.746m-16.518 63.035-.022-.036-14.303-22.935 4.311-2.688 14.336 22.989-4.257 2.654-.036.023zm2.093-6.244 2.218 3.556-.575.358-2.218-3.556zm-5.278-14.944c.248-1.602 1.408-3.023 3.455-4.3s3.845-1.674 5.382-1.21c1.547.481 2.829 1.577 3.905 3.302l4.457 7.148c1.076 1.724 1.489 3.387 1.247 4.96-.248 1.601-1.389 3.011-3.455 4.299s-3.845 1.675-5.381 1.211c-1.548-.482-2.83-1.578-3.905-3.302l-4.458-7.148c-1.075-1.724-1.489-3.387-1.247-4.96m11.506 11.01c.386.059.794-.046 1.243-.326s.723-.601.858-.984c.135-.384.059-.786-.21-1.217l-5.488-8.8c-.257-.413-.603-.647-1-.724-.404-.047-.83.069-1.261.338s-.723.6-.84.973q-.175.558.228 1.205l5.488 8.8q.386.62.982.735m1.426-19.074c.248-1.602 1.407-3.023 3.455-4.3s3.845-1.674 5.381-1.211c1.548.482 2.83 1.578 3.905 3.302l4.458 7.149c1.075 1.724 1.489 3.387 1.247 4.959-.248 1.602-1.39 3.012-3.455 4.3s-3.845 1.675-5.381 1.211c-1.548-.482-2.83-1.578-3.906-3.302l-4.457-7.148c-1.076-1.725-1.489-3.387-1.247-4.96m11.505 11.01c.386.059.795-.047 1.244-.327s.723-.6.858-.984c.135-.383.059-.785-.21-1.216l-5.488-8.8c-.258-.414-.603-.647-1-.724-.404-.047-.83.069-1.261.338-.431.268-.723.6-.84.973q-.176.558.227 1.205l5.488 8.8q.387.62.982.735m-3.679-24.621 4.31-2.688 7.191 11.53-.431.269-.427-8.764 4.023-2.509 1.072 7.239c.105.808.138 1.461.059 1.934-.068.492-.311.942-.724 1.4q-.62.686-2.021 1.559l-.269-.431c.934-.582 1.697-.958 2.272-1.117s1.097-.161 1.539-.012c.442.148.996.477 1.673 1.002l8.102 6.073-4.597 2.867-8.881-6.36.431-.269 5.342 8.567-4.31 2.688-14.336-22.989z"/><g clip-path="url(#b)"><path fill="#fff" d="M95.435 145.28C68.685 103.079 81.21 47.186 123.41 20.435 165.611-6.315 221.505 6.21 248.255 48.41z"/><path fill="#ff71ee" d="M171.845 96.845c21.1-13.375 27.363-41.322 13.988-62.422S144.51 7.06 123.41 20.435s-27.362 41.323-13.987 62.423 41.322 27.362 62.422 13.987"/><path fill="#fff" d="M124.003 48.394c5.001-3.619 11.193-3.435 16.584-.901.011-4.813 1.647-9.735 5.426-12.926 8.121-6.866 17.938-3.478 22.877 5.218 6.407 11.325.671 23.054-2.601 34.39-.907 3.164-1.716 6.366-2.583 9.555l-.394.125c-7.074-1.616-14.334-2.268-21.475-3.517-10.087-1.773-17.09-3.982-22.285-13.71-3.384-6.32-1.274-14.107 4.44-18.252z"/></g></g><defs><clipPath id="a"><path fill="#fff" d="M0 0h400v180H0z"/></clipPath><clipPath id="b"><path fill="#fff" d="M47 68.87 199.82-28l48.435 76.41-152.82 96.87z"/></clipPath></defs></svg>
